images/automation.svg

<svg height="512pt" viewBox="0 0 512 512" width="512pt" xmlns="http://www.w3.org/2000/svg"><path d="m45 192h-45v-40h45zm-26.574219 79.003906 17.996094 35.722656 42.4375-21.375-17.992187-35.722656zm59.433594-215.410156-41.441406-20.871094-17.992188 35.726563 41.441407 20.867187zm398.609375 136.40625c-1.894531 7.328125-4.816406 14.242188-8.578125 20.605469l25.394531 25.394531-28.285156 28.285156-25.394531-25.394531c-6.363281 3.761719-13.277344 6.683594-20.605469 8.578125v35.53125h-40v-35.53125c-7.328125-1.894531-14.242188-4.816406-20.605469-8.578125l-25.394531 25.394531-28.285156-28.285156 25.394531-25.394531c-3.761719-6.363281-6.683594-13.277344-8.578125-20.605469h-36.53125v-40h36.53125c1.894531-7.328125 4.816406-14.242188 8.578125-20.605469l-25.394531-25.394531 28.285156-28.285156 25.394531 25.394531c6.363281-3.761719 13.277344-6.683594 20.605469-8.578125v-35.53125h40v35.53125c7.328125 1.894531 14.242188 4.816406 20.605469 8.578125l25.394531-25.394531 28.285156 28.285156-25.394531 25.394531c3.761719 6.363281 6.683594 13.277344 8.578125 20.605469h35.53125v40zm-117.46875-20.75c0 21.84375 17.199219 40.222656 39.035156 40.738281 22.496094.53125 40.964844-17.609375 40.964844-39.988281 0-22.054688-17.945312-40-40-40-.226562 0-.46875 0-.726562 0-21.683594-.007812-39.273438 17.566406-39.273438 39.25zm-31.695312 135.878906c12.132812 6.460938 25.234374 11.335938 39.023437 14.347656-17.917969 23.992188-31.214844 45.152344-31.214844 77.9375v52.585938c0 33.085938-26.917969 60-60 60h-38.222656c-33.085937 0-60-26.914062-60-60v-52.585938c0-36.910156-16.851563-59.085937-38.179687-87.152343-25.503907-33.5625-54.390626-71.574219-54.707032-140.261719h-.003906l.003906-1.144531c.617188-94.316407 77.535156-170.855469 171.996094-170.855469 34.246094 0 66.183594 10.066406 93.019531 27.390625-15.378906 5.332031-29.65625 13.050781-42.378906 22.714844-15.601563-6.503907-32.707031-10.105469-50.640625-10.105469-72.617188 0-131.726562 58.9375-132 131.492188.171875 55.523437 22.707031 85.179687 46.558594 116.566406 18.507812 24.355468 37.527344 49.386718 44.007812 84.941406h82.878906c4.816407-26.421875 16.550782-47.035156 29.859376-65.871094zm-32.195313 144.871094v-39h-78.222656v39c0 11.027344 8.972656 20 20 20h38.222656c11.03125 0 20-8.972656 20-20zm0 0"/></svg>

<svg height="512pt" viewBox="0 0 512 512" width="512pt" xmlns="http://www.w3.org/2000/svg"><path d="M45 192H0v-40h45zm-26.574 79.004l17.996 35.723 42.437-21.375-17.992-35.723zm59.433-215.41L36.418 34.723 18.426 70.449l41.441 20.867zM476.47 192a79.669 79.669 0 01-8.578 20.605L493.285 238 465 266.285l-25.395-25.394A79.669 79.669 0 01419 249.469V285h-40v-35.531a79.669 79.669 0 01-20.605-8.578L333 266.285 304.715 238l25.394-25.395A79.669 79.669 0 01321.531 192H285v-40h36.531a79.669 79.669 0 018.578-20.605L304.715 106 333 77.715l25.395 25.394A79.669 79.669 0 01379 94.531V59h40v35.531a79.669 79.669 0 0120.605 8.578L465 77.715 493.285 106l-25.394 25.395A79.669 79.669 0 01476.469 152H512v40zM359 171.25c0 21.844 17.2 40.223 39.035 40.738C420.531 212.52 439 194.378 439 172c0-22.055-17.945-40-40-40h-.727C376.59 131.992 359 149.566 359 171.25zm-31.695 135.879a151.993 151.993 0 0039.023 14.348c-17.918 23.992-31.215 45.152-31.215 77.937V452c0 33.086-26.918 60-60 60h-38.222c-33.086 0-60-26.914-60-60v-52.586c0-36.91-16.852-59.086-38.18-87.152C113.207 278.699 84.32 240.687 84.004 172H84l.004-1.145C84.62 76.54 161.539 0 256 0c34.246 0 66.184 10.066 93.02 27.39a152.86 152.86 0 00-42.38 22.715C291.04 43.602 273.935 40 256 40c-72.617 0-131.727 58.937-132 131.492.172 55.524 22.707 85.18 46.559 116.567 18.507 24.355 37.527 49.386 44.007 84.941h82.88c4.816-26.422 16.55-47.035 29.859-65.871zM295.109 452v-39h-78.222v39c0 11.027 8.972 20 20 20h38.222c11.032 0 20-8.973 20-20zm0 0"/></svg>
